X:575
T:Bourre
L:1/8
M:2/4
O:France
R:Bourre
Z:Richard Robinson 
%%TUNEURL: http://www.leeds.ac.uk/music/Info/RRTuneBk/gettune/00000b8a.html
%%ID:00000b8a
K:G
d2e2| dc B/A/G| d2e2| dg f/e/d/c/| d2e2| dc B/A/G| cA d/c/B/A/| GB G2::
cc cB/c/| dd B/A/G| cc cB/c/| dg d2| cc cB/c/| dd B/A/G| cA d/c/B/A/ | GB G2:|
